latex_in_markdown/.watch-latex-md-images/0d0f874dd4bbfe3d9a8765a7632d466a.svg

<ns0:svg xmlns:ns0="http://www.w3.org/2000/svg" xmlns:ns1="http://www.w3.org/1999/xlink" height="17.1855pt" version="1.1" viewBox="23.686 61.8237 61.1181 17.1855" width="61.1181pt" watch_lated_md:baseline="4.289399999999997" xmlns:watch_lated_md="https://github.com/Quansight/pearu-sandbox/latex_in_markdown/">
<ns0:defs>
<ns0:path d="m11.345 -3.95955c0.292662 0 0.60254 0 0.60254 -0.344309s-0.309878 -0.344309 -0.60254 -0.344309h-9.31355c-0.292662 0 -0.60254 0 -0.60254 0.344309s0.309878 0.344309 0.60254 0.344309h9.31355z" id="g0-0" />
<ns0:path d="m3.35701 0.0688618c0 -0.998496 -0.327093 -1.73876 -1.03293 -1.73876c-0.550894 0 -0.826341 0.447601 -0.826341 0.826341s0.258232 0.843557 0.843557 0.843557c0.223801 0 0.413171 -0.0688618 0.56811 -0.223801c0.0344309 -0.0344309 0.0516463 -0.0344309 0.0688618 -0.0344309c0.0344309 0 0.0344309 0.241016 0.0344309 0.327093c0 0.56811 -0.103293 1.68711 -1.10179 2.80612c-0.18937 0.206585 -0.18937 0.241016 -0.18937 0.275447c0 0.0860772 0.0860772 0.172154 0.172154 0.172154c0.137724 0 1.46331 -1.27394 1.46331 -3.25372z" id="g1-59" />
<ns0:path d="m5.26792 4.20057c0 -0.0172154 0 -0.0516463 -0.0516463 -0.103293c-0.79191 -0.809126 -2.90941 -3.0127 -2.90941 -8.38392s2.08307 -7.55758 2.92662 -8.41835c0 -0.0172154 0.0344309 -0.0516463 0.0344309 -0.103293s-0.0516463 -0.0860772 -0.120508 -0.0860772c-0.18937 0 -1.65268 1.27394 -2.49624 3.16764c-0.860772 1.91091 -1.10179 3.77018 -1.10179 5.42286c0 1.23951 0.120508 3.3398 1.15343 5.56059c0.826341 1.79041 2.23801 3.04713 2.44459 3.04713c0.0860772 0 0.120508 -0.0344309 0.120508 -0.103293z" id="g2-40" />
<ns0:path d="m4.52766 -4.28664c0 -1.23951 -0.120508 -3.3398 -1.15343 -5.56059c-0.826341 -1.79041 -2.23801 -3.04713 -2.44459 -3.04713c-0.0516463 0 -0.120508 0.0172154 -0.120508 0.103293c0 0.0344309 0.0172154 0.0516463 0.0344309 0.0860772c0.826341 0.860772 2.92662 3.04713 2.92662 8.40114c0 5.37122 -2.08307 7.55758 -2.92662 8.41835c-0.0172154 0.0344309 -0.0344309 0.0516463 -0.0344309 0.0860772c0 0.0860772 0.0688618 0.103293 0.120508 0.103293c0.18937 0 1.65268 -1.27394 2.49624 -3.16764c0.860772 -1.91091 1.10179 -3.77018 1.10179 -5.42286z" id="g2-41" />
<ns0:path d="m2.85776 -0.705833c0 -0.430386 -0.344309 -0.705833 -0.705833 -0.705833c-0.344309 0 -0.705833 0.275447 -0.705833 0.705833s0.344309 0.705833 0.705833 0.705833c0.344309 0 0.705833 -0.275447 0.705833 -0.705833z" id="g2-46" />
<ns0:path d="m4.57931 -11.0007c0 -0.361524 -0.0172154 -0.37874 -0.258232 -0.37874c-0.671402 0.809126 -1.68711 1.06736 -2.65118 1.10179c-0.0516463 0 -0.137724 0 -0.154939 0.0344309s-0.0172154 0.0688618 -0.0172154 0.430386c0.533679 0 1.42888 -0.103293 2.1175 -0.516463v9.07254c0 0.60254 -0.0344309 0.809126 -1.51496 0.809126h-0.516463v0.447601c0.826341 -0.0172154 1.68711 -0.0344309 2.51345 -0.0344309s1.68711 0.0172154 2.51345 0.0344309v-0.447601h-0.516463c-1.48053 0 -1.51496 -0.18937 -1.51496 -0.809126v-9.74394z" id="g2-49" />
<ns0:path d="m1.82484 -5.93933c0 -4.11449 1.92813 -5.04412 3.04713 -5.04412c0.361524 0 1.23951 0.0688618 1.58382 0.740264c-0.275447 0 -0.79191 0 -0.79191 0.60254c0 0.464817 0.37874 0.619756 0.619756 0.619756c0.154939 0 0.619756 -0.0688618 0.619756 -0.654187c0 -1.08457 -0.860772 -1.70433 -2.04864 -1.70433c-2.04864 0 -4.20057 2.13471 -4.20057 5.93933c0 4.6826 1.94534 5.71553 3.32258 5.71553c1.6699 0 3.25372 -1.49774 3.25372 -3.80461c0 -2.15193 -1.39445 -3.71854 -3.15043 -3.71854c-1.05014 0 -1.82484 0.688618 -2.25522 1.8937v-0.585325zm2.15193 5.8016c-2.1175 0 -2.1175 -3.16764 -2.1175 -3.80461c0 -1.23951 0.585325 -3.02992 2.18636 -3.02992c0.292662 0 1.13622 0 1.70433 1.18787c0.309878 0.671402 0.309878 1.37724 0.309878 2.23801c0 0.929634 0 1.61825 -0.361524 2.30687c-0.37874 0.705833 -0.929634 1.10179 -1.72154 1.10179z" id="g2-54" />
</ns0:defs>
<ns0:g id="page1">
<ns0:use x="27.9837" ns1:href="#g2-40" y="74.7198" />
<ns0:use x="34.0802" ns1:href="#g0-0" y="74.7198" />
<ns0:use x="47.47" ns1:href="#g2-49" y="74.7198" />
<ns0:use x="55.3653" ns1:href="#g1-59" y="74.7198" />
<ns0:use x="62.917" ns1:href="#g2-49" y="74.7198" />
<ns0:use x="70.8123" ns1:href="#g2-54" y="74.7198" />
<ns0:use x="78.7076" ns1:href="#g2-41" y="74.7198" />
</ns0:g>
</ns0:svg>

<ns0:svg xmlns:ns0="http://www.w3.org/2000/svg" xmlns:ns1="http://www.w3.org/1999/xlink" height="17.1855pt" version="1.1" viewBox="23.686 61.8237 61.1181 17.1855" width="61.1181pt" watch_lated_md:baseline="4.289399999999997" xmlns:watch_lated_md="https://github.com/Quansight/pearu-sandbox/latex_in_markdown/">
<ns0:defs>
<ns0:path d="M11.345 -3.95955C11.6376 -3.95955 11.9475 -3.95955 11.9475 -4.30386S11.6376 -4.64817 11.345 -4.64817H2.03142C1.73876 -4.64817 1.42888 -4.64817 1.42888 -4.30386S1.73876 -3.95955 2.03142 -3.95955H11.345Z" id="g0-0" />
<ns0:path d="M3.35701 0.0688618C3.35701 -0.929634 3.02992 -1.6699 2.32408 -1.6699C1.77319 -1.6699 1.49774 -1.2223 1.49774 -0.843557S1.75597 0 2.3413 0C2.5651 0 2.75447 -0.0688618 2.90941 -0.223801C2.94384 -0.258232 2.96106 -0.258232 2.97827 -0.258232C3.0127 -0.258232 3.0127 -0.0172154 3.0127 0.0688618C3.0127 0.636971 2.90941 1.75597 1.91091 2.87498C1.72154 3.08156 1.72154 3.11599 1.72154 3.15043C1.72154 3.2365 1.80762 3.32258 1.8937 3.32258C2.03142 3.32258 3.35701 2.04864 3.35701 0.0688618Z" id="g1-59" />
<ns0:path d="M5.26792 4.20057C5.26792 4.18335 5.26792 4.14892 5.21628 4.09727C4.42437 3.28815 2.30687 1.08457 2.30687 -4.28664S4.38994 -11.8442 5.23349 -12.705C5.23349 -12.7222 5.26792 -12.7566 5.26792 -12.8083S5.21628 -12.8944 5.14742 -12.8944C4.95805 -12.8944 3.49473 -11.6204 2.65118 -9.72672C1.79041 -7.81581 1.54939 -5.95654 1.54939 -4.30386C1.54939 -3.06435 1.6699 -0.964065 2.70282 1.25673C3.52917 3.04713 4.94083 4.30386 5.14742 4.30386C5.23349 4.30386 5.26792 4.26943 5.26792 4.20057Z" id="g2-40" />
<ns0:path d="M4.52766 -4.28664C4.52766 -5.52616 4.40715 -7.62644 3.37423 -9.84723C2.54789 -11.6376 1.13622 -12.8944 0.929634 -12.8944C0.877987 -12.8944 0.809126 -12.8771 0.809126 -12.7911C0.809126 -12.7566 0.826341 -12.7394 0.843557 -12.705C1.6699 -11.8442 3.77018 -9.65786 3.77018 -4.30386C3.77018 1.06736 1.68711 3.25372 0.843557 4.11449C0.826341 4.14892 0.809126 4.16614 0.809126 4.20057C0.809126 4.28664 0.877987 4.30386 0.929634 4.30386C1.119 4.30386 2.58232 3.02992 3.42587 1.13622C4.28664 -0.774695 4.52766 -2.63396 4.52766 -4.28664Z" id="g2-41" />
<ns0:path d="M2.85776 -0.705833C2.85776 -1.13622 2.51345 -1.41167 2.15193 -1.41167C1.80762 -1.41167 1.4461 -1.13622 1.4461 -0.705833S1.79041 0 2.15193 0C2.49624 0 2.85776 -0.275447 2.85776 -0.705833Z" id="g2-46" />
<ns0:path d="M4.57931 -11.0007C4.57931 -11.3622 4.56209 -11.3794 4.32108 -11.3794C3.64967 -10.5703 2.63396 -10.312 1.6699 -10.2776C1.61825 -10.2776 1.53217 -10.2776 1.51496 -10.2432S1.49774 -10.1743 1.49774 -9.8128C2.03142 -9.8128 2.92662 -9.91609 3.61524 -10.3293V-1.25673C3.61524 -0.654187 3.58081 -0.447601 2.10028 -0.447601H1.58382V0C2.41016 -0.0172154 3.27093 -0.0344309 4.09727 -0.0344309S5.78439 -0.0172154 6.61073 0V-0.447601H6.09427C4.61374 -0.447601 4.57931 -0.636971 4.57931 -1.25673V-11.0007Z" id="g2-49" />
<ns0:path d="M1.82484 -5.93933C1.82484 -10.0538 3.75297 -10.9835 4.87197 -10.9835C5.23349 -10.9835 6.11148 -10.9146 6.45579 -10.2432C6.18034 -10.2432 5.66388 -10.2432 5.66388 -9.64065C5.66388 -9.17583 6.04262 -9.02089 6.28364 -9.02089C6.43857 -9.02089 6.90339 -9.08975 6.90339 -9.67508C6.90339 -10.7597 6.04262 -11.3794 4.85475 -11.3794C2.80612 -11.3794 0.654187 -9.24469 0.654187 -5.44008C0.654187 -0.757479 2.59953 0.275447 3.97677 0.275447C5.64666 0.275447 7.23049 -1.2223 7.23049 -3.52917C7.23049 -5.6811 5.83603 -7.2477 4.08006 -7.2477C3.02992 -7.2477 2.25522 -6.55908 1.82484 -5.354V-5.93933ZM3.97677 -0.137724C1.85927 -0.137724 1.85927 -3.30536 1.85927 -3.94234C1.85927 -5.18185 2.44459 -6.97225 4.04563 -6.97225C4.33829 -6.97225 5.18185 -6.97225 5.74996 -5.78439C6.05984 -5.11299 6.05984 -4.40715 6.05984 -3.54638C6.05984 -2.61675 6.05984 -1.92813 5.69831 -1.23951C5.31957 -0.533679 4.76868 -0.137724 3.97677 -0.137724Z" id="g2-54" />
</ns0:defs>
<ns0:g id="page1">
<ns0:use x="27.9837" ns1:href="#g2-40" y="74.7198" />
<ns0:use x="34.0802" ns1:href="#g0-0" y="74.7198" />
<ns0:use x="47.47" ns1:href="#g2-49" y="74.7198" />
<ns0:use x="55.3653" ns1:href="#g1-59" y="74.7198" />
<ns0:use x="62.917" ns1:href="#g2-49" y="74.7198" />
<ns0:use x="70.8123" ns1:href="#g2-54" y="74.7198" />
<ns0:use x="78.7076" ns1:href="#g2-41" y="74.7198" />
</ns0:g>
</ns0:svg>
